src/components/common/icons/wine.svg

<svg height="55" viewBox="0 0 33 55" width="33" xmlns="http://www.w3.org/2000/svg"><path d="m18.722019 38.6656c7.7293334-.9424 13.7068572-6.8736 13.7068572-14.032 0-4.024-.9050476-7.5952-1.7793333-11.048-.8467619-3.352-1.6481905-6.5184-1.6481905-10.0176v-2.128h-24.86533335v2.128c0 3.4992-.79980953 6.6656-1.64657143 10.0176-.87428572 3.4528-1.77933333 7.024-1.77933333 11.048 0 7.1584 5.97590476 13.0896 13.70685711 14.032v12.4304l-11.53895235-.0016v4.256h27.38295235v-4.256l-11.5389524.0016zm-10.35866662-32.968h16.41228572c.2428571 3.1744.9795238 6.0864 1.6951429 8.9216.3173333 1.2512.6281904 2.4784.8920952 3.704-.6379048.176-1.1705714.392-1.6465714.5872-.8208572.336-1.4182858.5824-2.4690477.5824s-1.6449523-.2464-2.4674285-.5824c-1.0005715-.4096-2.244-.92-4.2111429-.92-1.9655238 0-3.2105714.5104-4.2095238.92-.8224762.336-1.4182857.5824-2.46904761.5824s-1.64657143-.2464-2.46742858-.5824c-.476-.1952-1.01028571-.4112-1.64819047-.5872.26390476-1.2256.5747619-2.4528.89371428-3.704.714-2.8352 1.45066667-5.7472 1.69514286-8.9216zm-3.34657143 18.936c0-.696.03561905-1.3792.09228572-2.0528.21371428.0784.42904762.1664.66219047.2608.98438096.4032 2.21.9072 4.11885715.9072 1.91047621 0 3.13285711-.504 4.11885711-.9072.8419048-.344 1.4506667-.5952 2.5597143-.5952s1.7178095.2512 2.5613333.5952c.984381.4032 2.208381.9072 4.1172381.9072 1.9104762 0 3.1344762-.504 4.1204762-.9072.2315238-.0944.4484762-.1824.6621905-.2608.0566667.6736.0906667 1.3568.0906667 2.0528 0 5.4656-5.1825715 9.9104-11.5519048 9.9104s-11.55190475-4.4448-11.55190475-9.9104z" fill="#010202" fill-rule="evenodd" transform="translate(0 -1)"/></svg>

<?xml version="1.0" encoding="UTF-8"?>
<svg width="33px" height="55px" viewBox="0 0 33 55" version="1.1" xmlns="http://www.w3.org/2000/svg" xmlns:xlink="http://www.w3.org/1999/xlink">
    <!-- Generator: Sketch 52.5 (67469) - http://www.bohemiancoding.com/sketch -->
    <title>Icons/.wine</title>
    <desc>Created with Sketch.</desc>
    <g id="Vapaaehtoisalusta-Layouts" stroke="none" stroke-width="1" fill="none" fill-rule="evenodd">
        <g id="HKI-Ikonit" transform="translate(-183.000000, -520.000000)" fill="#010202">
            <g id="Icons/.wine" transform="translate(183.000000, 519.000000)">
                <path d="M18.722019,38.6656 C26.4513524,37.7232 32.4288762,31.792 32.4288762,24.6336 C32.4288762,20.6096 31.5238286,17.0384 30.6495429,13.5856 C29.802781,10.2336 29.0013524,7.0672 29.0013524,3.568 L29.0013524,1.44 L4.13601905,1.44 L4.13601905,3.568 C4.13601905,7.0672 3.33620952,10.2336 2.48944762,13.5856 C1.6151619,17.0384 0.710114286,20.6096 0.710114286,24.6336 C0.710114286,31.792 6.68601905,37.7232 14.4169714,38.6656 L14.4169714,51.096 L2.87801905,51.0944 L2.87801905,55.3504 L30.2609714,55.3504 L30.2609714,51.0944 L18.722019,51.096 L18.722019,38.6656 Z M8.36335238,5.6976 L24.7756381,5.6976 C25.0184952,8.872 25.7551619,11.784 26.470781,14.6192 C26.7881143,15.8704 27.0989714,17.0976 27.3628762,18.3232 C26.7249714,18.4992 26.1923048,18.7152 25.7163048,18.9104 C24.8954476,19.2464 24.298019,19.4928 23.2472571,19.4928 C22.1964952,19.4928 21.6023048,19.2464 20.7798286,18.9104 C19.7792571,18.5008 18.5358286,17.9904 16.5686857,17.9904 C14.6031619,17.9904 13.3581143,18.5008 12.3591619,18.9104 C11.5366857,19.2464 10.9408762,19.4928 9.89011429,19.4928 C8.83935238,19.4928 8.24354286,19.2464 7.42268571,18.9104 C6.94668571,18.7152 6.4124,18.4992 5.77449524,18.3232 C6.0384,17.0976 6.34925714,15.8704 6.66820952,14.6192 C7.38220952,11.784 8.11887619,8.872 8.36335238,5.6976 Z M5.01678095,24.6336 C5.01678095,23.9376 5.0524,23.2544 5.10906667,22.5808 C5.32278095,22.6592 5.53811429,22.7472 5.77125714,22.8416 C6.7556381,23.2448 7.98125714,23.7488 9.89011429,23.7488 C11.8005905,23.7488 13.0229714,23.2448 14.0089714,22.8416 C14.8508762,22.4976 15.4596381,22.2464 16.5686857,22.2464 C17.6777333,22.2464 18.2864952,22.4976 19.130019,22.8416 C20.1144,23.2448 21.3384,23.7488 23.2472571,23.7488 C25.1577333,23.7488 26.3817333,23.2448 27.3677333,22.8416 C27.5992571,22.7472 27.8162095,22.6592 28.0299238,22.5808 C28.0865905,23.2544 28.1205905,23.9376 28.1205905,24.6336 C28.1205905,30.0992 22.938019,34.544 16.5686857,34.544 C10.1993524,34.544 5.01678095,30.0992 5.01678095,24.6336 Z" id="Fill-72"></path>
            </g>
        </g>
    </g>
</svg>
